X: 541
T: Jenny dang the Weaver
R: reel
B: Robert Bremner "A Collection of Scots Reels or Country Dances" 1757 p.54 #1
S: http://imslp.org/wiki/A_Collection_of_Scots_Reels_or_Country_Dances_(Bremner,_Robert)
Z: 2013 John Chambers <jc:trillian.mit.edu>
M: C|
L: 1/8
K: D
% - - - - - - - - - - - - - - - - - - - - - - - - -
V: 1
g |\
fA A/A/A ABAB | dA A/A/A Tf2ed |\
fB B/B/B BABd | ABde Tf2e :|
|: f |\
defd efge | defd Te2dB |\
defd eBgB | aA A/A/A Tf2e :|
% - - - - - - - - - - - - - - - - - - - - - - - - -
V: 2 clef=bass middle=d
z |\
a2a2 a2a2 | a2a2 a2a2 |\
b2b2 b2b2 | a2a2 a2a :|\
|: z |
d2d2 e2e2 | e2e2 B2B2 |\
d2d2 G2G2 | A2A2 D2D :|
% - - - - - - - - - - - - - - - - - - - - - - - - -

%%sep 1 1 500
%%sep 1 1 500
